common/resources/fonts/svg/text.svg

<?xml version="1.0" encoding="UTF-8" standalone="no"?>
<svg width="1024px" height="1024px" viewBox="0 0 1024 1024" version="1.1" xmlns="http://www.w3.org/2000/svg" xmlns:xlink="http://www.w3.org/1999/xlink">
    <!-- Generator: Sketch 3.7.1 (28215) - http://www.bohemiancoding.com/sketch -->
    <title>text</title>
    <desc>Created with Sketch.</desc>
    <defs></defs>
    <g id="Page-1" stroke="none" stroke-width="1" fill="none" fill-rule="evenodd">
        <g id="text" fill="#000000">
            <path d="M564.189252,858.752826 L753.944586,887.342207 L732.832053,971.052982 L510.556683,954.629229 L280.030147,971.052982 L263.527817,879.353694 L448.672946,858.752826 L448.672946,190.275963 L206.638782,156.318761 L214.889947,290.2156 L110.375194,290.2156 L109,52.9646268 C109,52.9646268 379.461299,70.5123107 514.691946,70.5123107 C647.624151,70.5123107 913.488558,52.9646268 913.488558,52.9646268 L912.113363,290.2156 L806.223417,290.2156 L814.47458,154.950115 L569.690028,184.801379 L564.189252,858.752826 L564.189252,858.752826 Z" id="T"></path>
        </g>
    </g>
</svg>

<svg width="1024" height="1024" viewBox="0 0 1024 1024">
    <path d="M564.19 858.753l189.755 28.59-21.113 83.71-222.275-16.424-230.527 16.424-16.502-91.7 185.145-20.6V190.276l-242.034-33.957 8.25 133.897H110.376L109 52.965s270.461 17.547 405.692 17.547c132.932 0 398.797-17.547 398.797-17.547l-1.376 237.25h-105.89l8.252-135.265-244.785 29.851-5.5 673.952z" fill-rule="evenodd"/>
</svg>
